images/LH.svg

<?xml version="1.0" encoding="UTF-8" standalone="no"?>
<svg
   width="3033.1943"
   height="566.92969"
   viewBox="0 0 3033.1943 566.92969"
   version="1.1"
   xml:space="preserve"
   style="clip-rule:evenodd;fill-rule:evenodd;stroke-linejoin:round;stroke-miterlimit:1.41421"
   id="svg1"
   sodipodi:docname="LH.svg"
   inkscape:version="1.4.2 (f4327f4, 2025-05-13)"
   xmlns:inkscape="http://www.inkscape.org/namespaces/inkscape"
   xmlns:sodipodi="http://sodipodi.sourceforge.net/DTD/sodipodi-0.dtd"
   xmlns="http://www.w3.org/2000/svg"
   xmlns:svg="http://www.w3.org/2000/svg"><defs
   id="defs1" /><sodipodi:namedview
   id="namedview1"
   pagecolor="#ffffff"
   bordercolor="#000000"
   borderopacity="0.25"
   inkscape:showpageshadow="2"
   inkscape:pageopacity="0.0"
   inkscape:pagecheckerboard="0"
   inkscape:deskcolor="#d1d1d1"
   inkscape:zoom="0.26653638"
   inkscape:cx="1498.8573"
   inkscape:cy="230.73773"
   inkscape:window-width="1920"
   inkscape:window-height="991"
   inkscape:window-x="-9"
   inkscape:window-y="-9"
   inkscape:window-maximized="1"
   inkscape:current-layer="svg1" />
    <g
   id="g39"
   transform="translate(-9.4492234,-9.4472611)"><path
     id="path28"
     style="clip-rule:evenodd;fill:#0a1d3d;fill-rule:nonzero;stroke-linejoin:round;stroke-miterlimit:1.41421"
     d="m -82.434909,170.32373 c -117.566001,0 -212.599161,-95.032168 -212.599161,-212.599168 0,-117.567002 95.03316,-212.599162 212.599161,-212.599162 117.567,0 212.599169,95.03216 212.599169,212.599162 0,117.567 -95.032169,212.599168 -212.599169,212.599168 z m 0,-12.75589 c 110.338,0 199.841809,-89.505278 199.841809,-199.843278 0,-110.338002 -89.503809,-199.841812 -199.841809,-199.841812 -110.338001,0 -199.841811,89.50381 -199.841811,199.841812 0,110.338 89.50381,199.843278 199.841811,199.843278 z"
     transform="matrix(1.33333,0,0,-1.33333,402.827,236.545)" /><path
     style="clip-rule:evenodd;fill:#0a1d3d;fill-rule:nonzero;stroke-linejoin:round;stroke-miterlimit:1.41421"
     d="m 0,0 c -1.616,0 -2.976,-0.042 -3.741,-0.127 -0.893,-1.616 -2.211,-3.784 -4.167,-6.803 30.44,0 58.075,-2.508 88.642,-7.992 l -8.63,-8.333 c -27.592,4.889 -50.507,6.844 -79.714,6.844 -4.251,0 -5.144,0 -6.164,-0.042 -1.021,-1.53 -3.317,-4.506 -5.612,-7.27 2.593,0.17 7.61,0.255 14.539,0.255 24.021,0 46.468,-1.785 70.829,-5.697 l -8.631,-8.375 c -18.536,2.891 -41.196,4.549 -61.518,4.549 -7.227,0 -15.432,-0.255 -22.787,-0.68 -1.658,-1.913 -5.994,-6.59 -7.312,-8.035 9.735,1.02 20.449,1.488 33.203,1.488 18.154,0 35.5,-1.191 51.91,-3.614 l -8.631,-8.29 c -11.691,1.445 -25.891,2.295 -38.432,2.295 -32.353,0 -57.862,-7.014 -84.221,-23.127 25.126,-26.954 66.28,-44.002 106.158,-44.002 h 3.741 l -13.944,-13.479 c -57.522,10.8 -118.062,36.096 -169.206,70.746 -49.189,33.203 -66.407,43.023 -104.797,59.986 l -0.255,9.864 25.976,-11.139 8.843,7.015 84.815,-38.858 -5.527,-4.421 -43.534,18.918 -4.294,-3.358 22.618,-12.627 c 19.089,-10.629 33.628,-15.39 47.063,-15.39 29.377,0 55.736,20.832 72.741,57.436 12.797,1.659 26.444,2.424 42.854,2.424 C 26.486,10.161 59.179,6.93 96.209,0 L 87.196,-8.715 C 64.154,-3.911 24.998,0 0,0"
     id="path1"
     transform="matrix(1.33333,0,0,-1.33333,402.827,236.545)" /></g><g
   id="g40"
   style="clip-rule:evenodd;fill-rule:evenodd;stroke-linejoin:round;stroke-miterlimit:1.41421"
   transform="matrix(1.33333,0,0,-1.33333,119.49397,227.09774)"><path
     id="path39"
     style="fill:#0a1d3d;fill-rule:nonzero"
     d="m 2092.9499,26.159304 c -60.33,0 -89.4906,-23.0827874 -91.9206,-66.411787 h 59.5314 c 0.81,11.34 7.2892,19.841358 32.3892,19.841358 22.28,0 32.8097,-7.287237 32.8097,-18.221237 0,-9.719 -6.0801,-13.361995 -21.0601,-14.980995 l -38.88,-4.050303 c -52.64,-5.671 -76.5295,-27.537312 -76.5295,-67.22331 0,-36.849 22.6705,-65.1945 70.8605,-65.1945 32.8,0 52.2392,10.52897 69.2492,31.58797 v -25.51471 h 55.881 v 134.037929 c 0,56.2849998 -32.8008,76.129585 -92.3308,76.129585 z m 34.0196,-118.243948 v -12.556676 c 0,-22.27 -21.0593,-38.87265 -53.4493,-38.87265 -15.8,0 -25.1104,7.28864 -25.1104,21.05864 0,10.528 6.4804,19.43561 27.1304,22.26861 l 35.2296,4.863298 c 6.08,0.807 12.5497,2.023778 16.1997,3.238778 z" /><path
     style="fill:#0a1d3d;fill-rule:nonzero"
     d="m 1896.15,-56.043 c 51.83,-6.886 77.75,-23.083 77.75,-65.603 0,-42.925 -30.37,-68.436 -94.76,-68.436 -70.05,0 -94.76,27.939 -95.97,68.843 h 60.34 c 1.62,-14.986 12.14,-22.275 35.63,-22.275 23.89,0 33.61,5.671 33.61,17.008 0,10.528 -8.1,15.387 -29.15,18.222 l -21.47,2.837 c -44.95,6.073 -70.86,23.485 -70.86,63.981 0,38.875 28.75,67.627 89.09,67.627 55.88,0 85.85,-22.272 88.68,-66.412 h -59.53 c -2.02,11.741 -8.5,19.032 -29.15,19.032 -20.25,0 -27.94,-6.885 -27.94,-15.795 0,-8.906 4.86,-13.766 22.27,-16.197 l 21.46,-2.832"
     id="path37" /><path
     style="fill:#0a1d3d;fill-rule:nonzero"
     d="m 1686.98,26.161 c 53.05,0 80.18,-23.486 80.18,-90.708 v -119.461 h -61.15 v 116.627 c 0,27.13 -11.74,39.277 -37.25,39.277 -23.09,0 -36.85,-12.147 -36.85,-39.277 v -116.627 h -61.15 V 20.086 h 57.5 V -3.402 c 8.51,15.795 25.92,29.563 58.72,29.563"
     id="path36" /><path
     id="path35"
     style="fill:#0a1d3d;fill-rule:nonzero"
     d="m 1453.2598,26.159304 c -60.34,0 -89.4991,-23.0827874 -91.9191,-66.411787 h 59.5197 c 0.81,11.34 7.2894,19.844287 32.3994,19.844287 22.27,0 32.8009,-7.290237 32.8009,-18.221237 0,-9.722 -6.0801,-13.364924 -21.0601,-14.983924 l -38.8712,-4.050303 c -52.65,-5.668 -76.5397,-27.536312 -76.5397,-67.22331 0,-36.849 22.6807,-65.1945 70.8707,-65.1945 32.8,0 52.239,10.52897 69.239,31.58797 v -25.51471 h 55.8912 v 134.037929 c 0,56.2879998 -32.8008,76.129585 -92.3308,76.129585 z m 34.0109,-118.243948 v -12.552276 c 0,-22.273 -21.0608,-38.87705 -53.4508,-38.87705 -15.79,0 -25.1105,7.28864 -25.1105,21.05864 0,10.528 6.4807,19.43561 27.1407,22.26861 l 35.2296,4.863298 c 6.07,0.811 12.551,2.023778 16.191,3.238778 z" /><path
     style="fill:#0a1d3d;fill-rule:nonzero"
     d="m 1252.4,26.161 c 51.84,0 78.97,-23.486 78.97,-90.708 v -119.461 h -61.15 v 116.627 c 0,27.13 -11.74,39.277 -37.25,39.277 -23.09,0 -36.85,-12.147 -36.85,-39.277 v -116.627 h -61.15 v 283.06 h 61.55 V 0.245 c 10.53,14.984 27.13,25.916 55.88,25.916"
     id="path33" /><path
     style="fill:#0a1d3d;fill-rule:nonzero"
     d="m 1070.45,20.087 h 46.57 v -49.809 h -46.57 v -79.37 c 0,-21.868 11.34,-27.537 29.16,-27.537 7.29,0 17.41,1.214 17.41,1.214 v -48.998 c 0,0 -14.17,-3.238 -29.15,-3.238 -49,0 -78.56,22.271 -78.56,71.673 v 86.256 h -30.78 v 49.809 h 30.78 v 59.527 h 61.14 z"
     id="path32" /><path
     style="fill:#0a1d3d;fill-rule:nonzero"
     d="m 856.643,27.78 c 0,49.403 31.183,75.727 80.181,75.727 15.795,0 25.917,-2.43 25.917,-2.43 V 51.674 c 0,0 -8.504,0.807 -15.795,0.807 -19.032,0 -29.157,-6.479 -29.157,-24.296 v -8.098 h 44.952 v -49.809 h -44.952 v -154.286 h -61.146 v 154.286 h -30.775 v 49.809 h 30.775 v 7.693"
     id="path31" /><path
     style="fill:#0a1d3d;fill-rule:nonzero"
     d="m 748.521,20.087 h 61.146 v -204.095 h -57.501 v 23.487 c -8.505,-15.793 -25.916,-29.56 -57.909,-29.56 -52.236,0 -79.368,23.487 -79.368,90.708 v 119.46 h 61.147 V -96.537 c 0,-27.133 11.745,-39.28 36.446,-39.28 22.272,0 36.039,12.147 36.039,39.28 z"
     id="path30" /><path
     style="clip-rule:evenodd;fill:#0a1d3d;fill-rule:nonzero;stroke-linejoin:round;stroke-miterlimit:1.41421"
     d="m 479.229,-126.91 h 121.89 v -57.098 H 413.628 V 99.458 h 65.601 z"
     id="path29" /></g>
</svg>

<?xml version="1.0" encoding="UTF-8" standalone="no"?>
<!DOCTYPE svg PUBLIC "-//W3C//DTD SVG 1.1//EN" "http://www.w3.org/Graphics/SVG/1.1/DTD/svg11.dtd">
<svg width="100%" height="100%" viewBox="0 0 3326 586" version="1.1" xmlns="http://www.w3.org/2000/svg" xmlns:xlink="http://www.w3.org/1999/xlink" xml:space="preserve" xmlns:serif="http://www.serif.com/" style="fill-rule:evenodd;clip-rule:evenodd;stroke-linejoin:round;stroke-miterlimit:1.41421;">
    <g id="path22" transform="matrix(1.33333,0,0,-1.33333,402.827,236.545)">
        <path d="M0,0C-1.616,0 -2.976,-0.042 -3.741,-0.127C-4.634,-1.743 -5.952,-3.911 -7.908,-6.93C22.532,-6.93 50.167,-9.438 80.734,-14.922L72.104,-23.255C44.512,-18.366 21.597,-16.411 -7.61,-16.411C-11.861,-16.411 -12.754,-16.411 -13.774,-16.453C-14.795,-17.983 -17.091,-20.959 -19.386,-23.723C-16.793,-23.553 -11.776,-23.468 -4.847,-23.468C19.174,-23.468 41.621,-25.253 65.982,-29.165L57.351,-37.54C38.815,-34.649 16.155,-32.991 -4.167,-32.991C-11.394,-32.991 -19.599,-33.246 -26.954,-33.671C-28.612,-35.584 -32.948,-40.261 -34.266,-41.706C-24.531,-40.686 -13.817,-40.218 -1.063,-40.218C17.091,-40.218 34.437,-41.409 50.847,-43.832L42.216,-52.122C30.525,-50.677 16.325,-49.827 3.784,-49.827C-28.569,-49.827 -54.078,-56.841 -80.437,-72.954C-55.311,-99.908 -14.157,-116.956 25.721,-116.956L29.462,-116.956L15.518,-130.435C-42.004,-119.635 -102.544,-94.339 -153.688,-59.689C-202.877,-26.486 -220.095,-16.666 -258.485,0.297L-258.74,10.161L-232.764,-0.978L-223.921,6.037L-139.106,-32.821L-144.633,-37.242L-188.167,-18.324L-192.461,-21.682L-169.843,-34.309C-150.754,-44.938 -136.215,-49.699 -122.78,-49.699C-93.403,-49.699 -67.044,-28.867 -50.039,7.737C-37.242,9.396 -23.595,10.161 -7.185,10.161C26.486,10.161 59.179,6.93 96.209,0L87.196,-8.715C64.154,-3.911 24.998,0 0,0M-82.435,-242.117C-192.773,-242.117 -282.277,-152.613 -282.277,-42.275C-282.277,68.063 -192.773,157.568 -82.435,157.568C27.903,157.568 117.407,68.063 117.407,-42.275C117.407,-152.613 27.903,-242.117 -82.435,-242.117M-82.435,170.323C-200.001,170.323 -295.034,75.292 -295.034,-42.275C-295.034,-159.842 -200.001,-254.874 -82.435,-254.874C35.132,-254.874 130.164,-159.842 130.164,-42.275C130.164,75.292 35.132,170.323 -82.435,170.323M479.229,-126.91L601.119,-126.91L601.119,-184.008L413.628,-184.008L413.628,99.458L479.229,99.458L479.229,-126.91ZM748.521,20.087L809.667,20.087L809.667,-184.008L752.166,-184.008L752.166,-160.521C743.661,-176.314 726.25,-190.081 694.257,-190.081C642.021,-190.081 614.889,-166.594 614.889,-99.373L614.889,20.087L676.036,20.087L676.036,-96.537C676.036,-123.67 687.781,-135.817 712.482,-135.817C734.754,-135.817 748.521,-123.67 748.521,-96.537L748.521,20.087ZM856.643,27.78C856.643,77.183 887.826,103.507 936.824,103.507C952.619,103.507 962.741,101.077 962.741,101.077L962.741,51.674C962.741,51.674 954.237,52.481 946.946,52.481C927.914,52.481 917.789,46.002 917.789,28.185L917.789,20.087L962.741,20.087L962.741,-29.722L917.789,-29.722L917.789,-184.008L856.643,-184.008L856.643,-29.722L825.868,-29.722L825.868,20.087L856.643,20.087L856.643,27.78M1070.45,20.087L1117.02,20.087L1117.02,-29.722L1070.45,-29.722L1070.45,-109.092C1070.45,-130.96 1081.79,-136.629 1099.61,-136.629C1106.9,-136.629 1117.02,-135.415 1117.02,-135.415L1117.02,-184.413C1117.02,-184.413 1102.85,-187.651 1087.87,-187.651C1038.87,-187.651 1009.31,-165.38 1009.31,-115.978L1009.31,-29.722L978.53,-29.722L978.53,20.087L1009.31,20.087L1009.31,79.614L1070.45,79.614L1070.45,20.087ZM1252.4,26.161C1304.24,26.161 1331.37,2.675 1331.37,-64.547L1331.37,-184.008L1270.22,-184.008L1270.22,-67.381C1270.22,-40.251 1258.48,-28.104 1232.97,-28.104C1209.88,-28.104 1196.12,-40.251 1196.12,-67.381L1196.12,-184.008L1134.97,-184.008L1134.97,99.052L1196.52,99.052L1196.52,0.245C1207.05,15.229 1223.65,26.161 1252.4,26.161M1487.27,-104.637C1487.27,-126.91 1466.21,-143.514 1433.82,-143.514C1418.03,-143.514 1408.71,-136.225 1408.71,-122.455C1408.71,-111.927 1415.19,-103.019 1435.85,-100.186L1471.08,-95.324C1477.15,-94.513 1483.63,-93.3 1487.27,-92.085L1487.27,-104.637ZM1453.26,26.16C1392.92,26.16 1363.76,3.077 1361.34,-40.252L1420.86,-40.252C1421.67,-28.912 1428.15,-20.408 1453.26,-20.408C1475.53,-20.408 1486.06,-27.699 1486.06,-38.63C1486.06,-48.352 1479.98,-51.995 1465,-53.614L1426.13,-57.663C1373.48,-63.331 1349.59,-85.2 1349.59,-124.887C1349.59,-161.736 1372.27,-190.081 1420.46,-190.081C1453.26,-190.081 1472.7,-179.553 1489.7,-158.494L1489.7,-184.008L1545.59,-184.008L1545.59,-49.97C1545.59,6.318 1512.79,26.16 1453.26,26.16M1686.98,26.161C1740.03,26.161 1767.16,2.675 1767.16,-64.547L1767.16,-184.008L1706.01,-184.008L1706.01,-67.381C1706.01,-40.251 1694.27,-28.104 1668.76,-28.104C1645.67,-28.104 1631.91,-40.251 1631.91,-67.381L1631.91,-184.008L1570.76,-184.008L1570.76,20.086L1628.26,20.086L1628.26,-3.402C1636.77,12.393 1654.18,26.161 1686.98,26.161M1896.15,-56.043C1947.98,-62.929 1973.9,-79.126 1973.9,-121.646C1973.9,-164.571 1943.53,-190.082 1879.14,-190.082C1809.09,-190.082 1784.38,-162.143 1783.17,-121.239L1843.51,-121.239C1845.13,-136.225 1855.65,-143.514 1879.14,-143.514C1903.03,-143.514 1912.75,-137.843 1912.75,-126.506C1912.75,-115.978 1904.65,-111.119 1883.6,-108.284L1862.13,-105.447C1817.18,-99.374 1791.27,-81.962 1791.27,-41.466C1791.27,-2.591 1820.02,26.161 1880.36,26.161C1936.24,26.161 1966.21,3.889 1969.04,-40.251L1909.51,-40.251C1907.49,-28.51 1901.01,-21.219 1880.36,-21.219C1860.11,-21.219 1852.42,-28.104 1852.42,-37.014C1852.42,-45.92 1857.28,-50.78 1874.69,-53.211L1896.15,-56.043M2126.97,-104.641C2126.97,-126.911 2105.91,-143.514 2073.52,-143.514C2057.72,-143.514 2048.41,-136.225 2048.41,-122.455C2048.41,-111.927 2054.89,-103.019 2075.54,-100.186L2110.77,-95.324C2116.85,-94.517 2123.32,-93.3 2126.97,-92.085L2126.97,-104.641ZM2092.95,26.16C2032.62,26.16 2003.46,3.077 2001.03,-40.252L2060.56,-40.252C2061.37,-28.912 2067.85,-20.411 2092.95,-20.411C2115.23,-20.411 2125.76,-27.699 2125.76,-38.633C2125.76,-48.352 2119.68,-51.995 2104.7,-53.614L2065.82,-57.663C2013.18,-63.334 1989.29,-85.201 1989.29,-124.887C1989.29,-161.736 2011.96,-190.081 2060.15,-190.081C2092.95,-190.081 2112.39,-179.553 2129.4,-158.494L2129.4,-184.008L2185.28,-184.008L2185.28,-49.97C2185.28,6.315 2152.48,26.16 2092.95,26.16" style="fill:rgb(10,29,61);fill-rule:nonzero;"/>
    </g>
</svg>
